icons/circle/48/wire.svg

<?xml version="1.0" encoding="UTF-8" standalone="no"?>
<svg id="svg2" viewBox="0 0 48 48" xmlns:cc="http://creativecommons.org/ns#" xmlns="http://www.w3.org/2000/svg" version="1.1" xmlns:dc="http://purl.org/dc/elements/1.1/" xmlns:rdf="http://www.w3.org/1999/02/22-rdf-syntax-ns#">
 <metadata id="metadata51">
  <rdf:RDF>
   <cc:Work rdf:about="">
    <dc:format>image/svg+xml</dc:format>
    <dc:type rdf:resource="http://purl.org/dc/dcmitype/StillImage"/>
    <dc:title/>
   </cc:Work>
  </rdf:RDF>
 </metadata>
 <defs id="defs4">
  <linearGradient id="linearGradient3764" x1="1" gradientTransform="matrix(0 -1 1 0 -.0000015 48)" x2="47" gradientUnits="userSpaceOnUse">
   <stop id="stop7" offset="0" style="stop-color:#e4e4e4"/>
   <stop id="stop9" offset="1" style="stop-color:#eee"/>
  </linearGradient>
 </defs>
 <g id="g11">
  <path id="path13" style="opacity:.05" d="m36.31 5c5.859 4.062 9.688 10.831 9.688 18.5 0 12.426-10.07 22.5-22.5 22.5-7.669 0-14.438-3.828-18.5-9.688 1.037 1.822 2.306 3.499 3.781 4.969 4.085 3.712 9.514 5.969 15.469 5.969 12.703 0 23-10.298 23-23 0-5.954-2.256-11.384-5.969-15.469-1.469-1.475-3.147-2.744-4.969-3.781zm4.969 3.781c3.854 4.113 6.219 9.637 6.219 15.719 0 12.703-10.297 23-23 23-6.081 0-11.606-2.364-15.719-6.219 4.16 4.144 9.883 6.719 16.219 6.719 12.703 0 23-10.298 23-23 0-6.335-2.575-12.06-6.719-16.219z"/>
  <path id="path15" style="opacity:.1" d="m41.28 8.781c3.712 4.085 5.969 9.514 5.969 15.469 0 12.703-10.297 23-23 23-5.954 0-11.384-2.256-15.469-5.969 4.113 3.854 9.637 6.219 15.719 6.219 12.703 0 23-10.298 23-23 0-6.081-2.364-11.606-6.219-15.719z"/>
  <path id="path17" style="opacity:.2" d="m31.25 2.375c8.615 3.154 14.75 11.417 14.75 21.13 0 12.426-10.07 22.5-22.5 22.5-9.708 0-17.971-6.135-21.12-14.75a23 23 0 0 0 44.875 -7 23 23 0 0 0 -16 -21.875z"/>
 </g>
 <g id="g19">
  <path id="path21" style="fill:url(#linearGradient3764)" d="m24 1c12.703 0 23 10.297 23 23s-10.297 23-23 23-23-10.297-23-23 10.297-23 23-23z"/>
 </g>
 <g id="g23">
  <path id="path25" style="opacity:.1" d="m40.03 7.531c3.712 4.084 5.969 9.514 5.969 15.469 0 12.703-10.297 23-23 23-5.954 0-11.384-2.256-15.469-5.969 4.178 4.291 10.01 6.969 16.469 6.969 12.703 0 23-10.298 23-23 0-6.462-2.677-12.291-6.969-16.469z"/>
 </g>
 <path id="path4185" style="text-decoration-line:none;image-rendering:auto;color-rendering:auto;solid-color:#000000;white-space:normal;shape-rendering:auto;color:#000000;text-decoration-color:#000000;isolation:auto;fill-rule:evenodd;block-progression:tb;text-indent:0;opacity:.1;text-decoration-style:solid;text-transform:none;mix-blend-mode:normal" d="m25 14c-1.25 0-2.3148 0.50475-2.998 1.2734-0.683 0.769-1.002 1.755-1.002 2.727v9c0 2.14 1.0223 4.1323 2.459 5.7344-1.098 0.728-2.281 1.266-3.459 1.266-3.5 0-6-2.5-6-6v-12a1.0001 1.0001 0 1 0 -2 0v12c0 4.5 3.5 8 8 8 1.839 0 3.5228-0.8273 5-1.9375 1.4772 1.1102 3.161 1.9375 5 1.9375 4.5 0 8-3.5 8-8v-12a1.0001 1.0001 0 1 0 -2 0v12c0 3.5-2.5 6-6 6-1.1783 0-2.3609-0.53798-3.459-1.2656 1.437-1.602 2.459-3.594 2.459-5.734v-9c0-0.97223-0.31868-1.9579-1.002-2.7266-0.683-0.768-1.748-1.273-2.998-1.273zm0 2c0.75 0 1.1852 0.24524 1.502 0.60156 0.317 0.356 0.498 0.87 0.498 1.398v9c0 1.5594-0.80276 3.1927-2 4.5-1.1972-1.3073-2-2.9406-2-4.5v-9c0-0.52778 0.18132-1.0421 0.49805-1.3984 0.317-0.357 0.752-0.602 1.502-0.602z"/>
 <path id="path4142" d="m24 13c-1.25 0-2.3148 0.50475-2.998 1.2734-0.683 0.769-1.002 1.755-1.002 2.727v9c0 2.14 1.0223 4.1323 2.459 5.7344-1.098 0.728-2.281 1.266-3.459 1.266-3.5 0-6-2.5-6-6v-12a1.0001 1.0001 0 1 0 -2 0v12c0 4.5 3.5 8 8 8 1.839 0 3.5228-0.8273 5-1.9375 1.4772 1.1102 3.161 1.9375 5 1.9375 4.5 0 8-3.5 8-8v-12a1.0001 1.0001 0 1 0 -2 0v12c0 3.5-2.5 6-6 6-1.1783 0-2.3609-0.53798-3.459-1.2656 1.437-1.602 2.459-3.594 2.459-5.734v-9c0-0.97223-0.31868-1.9579-1.002-2.7266-0.683-0.768-1.748-1.273-2.998-1.273zm0 2c0.75 0 1.1852 0.24524 1.502 0.60156 0.317 0.356 0.498 0.87 0.498 1.398v9c0 1.5594-0.80276 3.1927-2 4.5-1.1972-1.3073-2-2.9406-2-4.5v-9c0-0.52778 0.18132-1.0421 0.49805-1.3984 0.317-0.357 0.752-0.602 1.502-0.602z" style="text-decoration-line:none;image-rendering:auto;color-rendering:auto;solid-color:#000000;white-space:normal;shape-rendering:auto;fill:#2c2c2c;color:#000000;text-decoration-color:#000000;isolation:auto;fill-rule:evenodd;block-progression:tb;text-indent:0;text-decoration-style:solid;text-transform:none;mix-blend-mode:normal"/>
</svg>

<svg viewBox="0 0 48 48" xmlns="http://www.w3.org/2000/svg">
  <defs>
    <linearGradient id="a" x1="1" gradientTransform="rotate(-90 24 24)" x2="47" gradientUnits="userSpaceOnUse">
      <stop offset="0" stop-color="#e4e4e4"/>
      <stop offset="1" stop-color="#eee"/>
    </linearGradient>
  </defs>
  <path d="M36.31 5c5.859 4.062 9.688 10.831 9.688 18.5 0 12.426-10.07 22.5-22.5 22.5-7.669 0-14.438-3.828-18.5-9.688a23.24 23.24 0 0 0 3.781 4.969 22.923 22.923 0 0 0 15.469 5.969c12.703 0 23-10.298 23-23a22.92 22.92 0 0 0-5.969-15.469A23.216 23.216 0 0 0 36.31 5zm4.969 3.781A22.911 22.911 0 0 1 47.498 24.5c0 12.703-10.297 23-23 23a22.909 22.909 0 0 1-15.719-6.219C12.939 45.425 18.662 48 24.998 48c12.703 0 23-10.298 23-23 0-6.335-2.575-12.06-6.719-16.219z" opacity=".05"/>
  <path d="M41.28 8.781a22.923 22.923 0 0 1 5.969 15.469c0 12.703-10.297 23-23 23A22.92 22.92 0 0 1 8.78 41.281 22.911 22.911 0 0 0 24.499 47.5c12.703 0 23-10.298 23-23A22.909 22.909 0 0 0 41.28 8.781z" opacity=".1"/>
  <path d="M31.25 2.375C39.865 5.529 46 13.792 46 23.505c0 12.426-10.07 22.5-22.5 22.5-9.708 0-17.971-6.135-21.12-14.75a23 23 0 0 0 44.875-7 23 23 0 0 0-16-21.875z" opacity=".2"/>
  <path d="M24 1c12.703 0 23 10.297 23 23S36.703 47 24 47 1 36.703 1 24 11.297 1 24 1z" fill="url(#a)"/>
  <path d="M40.03 7.531A22.922 22.922 0 0 1 45.999 23c0 12.703-10.297 23-23 23A22.92 22.92 0 0 1 7.53 40.031C11.708 44.322 17.54 47 23.999 47c12.703 0 23-10.298 23-23 0-6.462-2.677-12.291-6.969-16.469z" opacity=".1"/>
  <path style="text-decoration-line:none;text-decoration-color:#000;isolation:auto;block-progression:tb;text-indent:0;text-decoration-style:solid;text-transform:none;mix-blend-mode:normal" d="M25 14c-1.25 0-2.315.505-2.998 1.273C21.319 16.043 21 17.028 21 18v9c0 2.14 1.022 4.133 2.459 5.735C22.361 33.463 21.178 34 20 34c-3.5 0-6-2.5-6-6V16a1 1 0 1 0-2 0v12c0 4.5 3.5 8 8 8 1.839 0 3.523-.827 5-1.938 1.477 1.11 3.161 1.938 5 1.938 4.5 0 8-3.5 8-8V16a1 1 0 1 0-2 0v12c0 3.5-2.5 6-6 6-1.178 0-2.36-.538-3.459-1.266C27.978 31.133 29 29.141 29 27.001v-9c0-.972-.319-1.958-1.002-2.726S26.25 14.002 25 14.002zm0 2c.75 0 1.185.245 1.502.602.317.356.498.87.498 1.398v9c0 1.559-.803 3.192-2 4.5-1.197-1.308-2-2.941-2-4.5v-9c0-.528.181-1.043.498-1.399.317-.357.752-.602 1.502-.602z" white-space="normal" color="#000" fill-rule="evenodd" opacity=".1"/>
  <path d="M24 13c-1.25 0-2.315.505-2.998 1.273C20.319 15.043 20 16.028 20 17v9c0 2.14 1.022 4.133 2.459 5.735C21.361 32.463 20.178 33 19 33c-3.5 0-6-2.5-6-6V15a1 1 0 1 0-2 0v12c0 4.5 3.5 8 8 8 1.839 0 3.523-.827 5-1.938 1.477 1.11 3.161 1.938 5 1.938 4.5 0 8-3.5 8-8V15a1 1 0 1 0-2 0v12c0 3.5-2.5 6-6 6-1.178 0-2.36-.538-3.459-1.266C26.978 30.133 28 28.141 28 26.001v-9c0-.972-.319-1.958-1.002-2.726S25.25 13.002 24 13.002zm0 2c.75 0 1.185.245 1.502.602.317.356.498.87.498 1.398v9c0 1.559-.803 3.192-2 4.5-1.197-1.308-2-2.941-2-4.5v-9c0-.528.181-1.043.498-1.399.317-.357.752-.602 1.502-.602z" style="text-decoration-line:none;text-decoration-color:#000;isolation:auto;block-progression:tb;text-indent:0;text-decoration-style:solid;text-transform:none;mix-blend-mode:normal" white-space="normal" fill="#2c2c2c" color="#000" fill-rule="evenodd"/>
</svg>
